X: 1
T:Dooley's Reel
T:Cooley's Reel
M:2/4
L:1/16
Q:160
C:Traditional Arr. Diekoff
S:From John Campbell
R:Reel
N:Second in set with "Absent Minded Woman
Z:Donna Diekoff
K:E Dor
"Em"EBBA B2 {c}BA|"Em"B2 AB dBAF|"D"EDFD BFAF|"D"EDFD BAGF  |!
"Em"EBBA  B2 {c}BA|"Em"B2 AB defg|"D"afec dBAF|1"D"DEFD "Em"E2 GF:|
2"D"DEFD "Em"Egfg||:!
"Em"eBBB eBgf|"Em"eBBB gfeB|"D"A2 FD ADFD|"D"A2 FA defd|!
"Em"eBBB eBgf|"Em"eBBB defg|"D"afec dBAF  |
1"D"DEFD "Em"Egfg:|2"D"DEFD "Em"E4   |
% Output from ABC2Win  Version 2.1  on 2/10/98
